src/assets/feature-star.svg

<svg width="28" height="29" viewBox="0 0 28 29" fill="none" xmlns="http://www.w3.org/2000/svg">
<path fill-rule="evenodd" clip-rule="evenodd" d="M4.99935 0.666016C5.55163 0.666016 5.99935 1.11373 5.99935 1.66602V2.99935H7.33268C7.88497 2.99935 8.33268 3.44706 8.33268 3.99935C8.33268 4.55163 7.88497 4.99935 7.33268 4.99935H5.99935V6.33268C5.99935 6.88497 5.55163 7.33268 4.99935 7.33268C4.44706 7.33268 3.99935 6.88497 3.99935 6.33268V4.99935H2.66602C2.11373 4.99935 1.66602 4.55163 1.66602 3.99935C1.66602 3.44706 2.11373 2.99935 2.66602 2.99935H3.99935V1.66602C3.99935 1.11373 4.44706 0.666016 4.99935 0.666016ZM15.4066 3.01238C15.9868 2.70924 16.6786 2.70924 17.2588 3.01238C17.7381 3.2628 17.9979 3.73073 18.1612 4.06525C18.3382 4.42802 18.5252 4.91404 18.7429 5.48024L19.5783 7.65219C19.9727 8.67764 20.1141 9.02492 20.3163 9.3093C20.5106 9.58261 20.7494 9.82141 21.0227 10.0157C21.3071 10.218 21.6544 10.3594 22.6798 10.7538L24.8518 11.5891C25.418 11.8069 25.904 11.9938 26.2668 12.1708C26.6013 12.3341 27.0692 12.5939 27.3197 13.0732C27.6228 13.6534 27.6228 14.3453 27.3197 14.9255C27.0692 15.4048 26.6013 15.6646 26.2668 15.8279C25.904 16.0049 25.418 16.1918 24.8518 16.4096L22.6798 17.2449C21.6544 17.6393 21.3071 17.7807 21.0227 17.983C20.7494 18.1773 20.5106 18.4161 20.3163 18.6894C20.1141 18.9738 19.9727 19.3211 19.5783 20.3465L18.7429 22.5185C18.5251 23.0847 18.3382 23.5707 18.1612 23.9334C17.9979 24.268 17.7381 24.7359 17.2588 24.9863C16.6786 25.2895 15.9868 25.2895 15.4066 24.9863C14.9272 24.7359 14.6674 24.268 14.5042 23.9334C14.3271 23.5707 14.1402 23.0847 13.9225 22.5185L13.0871 20.3465C12.6927 19.3211 12.5513 18.9738 12.3491 18.6894C12.1547 18.4161 11.9159 18.1773 11.6426 17.983C11.3583 17.7807 11.011 17.6393 9.98552 17.2449L7.8135 16.4095C7.24733 16.1918 6.76134 16.0049 6.39858 15.8279C6.06406 15.6646 5.59613 15.4048 5.34571 14.9255C5.04258 14.3453 5.04258 13.6534 5.34571 13.0732C5.59613 12.5939 6.06406 12.3341 6.39858 12.1708C6.76135 11.9938 7.24736 11.8069 7.81355 11.5891L9.98552 10.7538C11.011 10.3594 11.3583 10.218 11.6426 10.0157C11.9159 9.82141 12.1547 9.58261 12.3491 9.3093C12.5513 9.02492 12.6927 8.67764 13.0871 7.65219L13.9225 5.48016C14.1402 4.91399 14.3271 4.428 14.5042 4.06525C14.6674 3.73073 14.9272 3.2628 15.4066 3.01238ZM16.3327 4.88044C16.323 4.89914 16.3126 4.91975 16.3015 4.94243C16.1675 5.21709 16.0116 5.61992 15.7727 6.24105L14.9538 8.37014C14.939 8.40871 14.9243 8.44676 14.9099 8.48431C14.5764 9.3521 14.3457 9.95265 13.979 10.4683C13.6551 10.9238 13.2571 11.3218 12.8016 11.6457C12.286 12.0123 11.6854 12.2431 10.8177 12.5766C10.7801 12.591 10.742 12.6056 10.7035 12.6205L8.57438 13.4393C7.95325 13.6782 7.55042 13.8342 7.27576 13.9682C7.25308 13.9793 7.23247 13.9897 7.21378 13.9993C7.23247 14.009 7.25308 14.0194 7.27576 14.0305C7.55042 14.1645 7.95325 14.3205 8.57438 14.5594L10.7035 15.3782C10.7421 15.3931 10.7801 15.4077 10.8177 15.4221C11.6854 15.7556 12.286 15.9864 12.8016 16.353C13.2571 16.6769 13.6551 17.0749 13.979 17.5304C14.3457 18.046 14.5764 18.6466 14.9099 19.5143C14.9243 19.5519 14.939 19.59 14.9538 19.6286L15.7727 21.7577C16.0116 22.3788 16.1675 22.7816 16.3015 23.0563C16.3126 23.0789 16.323 23.0996 16.3327 23.1183C16.3424 23.0996 16.3528 23.0789 16.3638 23.0563C16.4979 22.7816 16.6538 22.3788 16.8927 21.7577L17.7116 19.6286C17.7264 19.59 17.741 19.5519 17.7555 19.5144C18.0889 18.6466 18.3197 18.046 18.6863 17.5304C19.0102 17.0749 19.4082 16.6769 19.8637 16.353C20.3794 15.9864 20.9799 15.7556 21.8477 15.4221C21.8853 15.4077 21.9233 15.3931 21.9619 15.3782L24.091 14.5594C24.7121 14.3205 25.1149 14.1645 25.3896 14.0305C25.4123 14.0194 25.4329 14.009 25.4516 13.9993C25.4329 13.9897 25.4123 13.9793 25.3896 13.9682C25.1149 13.8342 24.7121 13.6782 24.091 13.4393L21.9619 12.6205C21.9233 12.6056 21.8852 12.591 21.8477 12.5766C20.9799 12.2431 20.3794 12.0123 19.8637 11.6457C19.4082 11.3218 19.0102 10.9238 18.6863 10.4683C18.3197 9.95265 18.0889 9.35212 17.7555 8.48435C17.741 8.44679 17.7264 8.40872 17.7116 8.37014L16.8927 6.24104C16.6538 5.61992 16.4979 5.21709 16.3638 4.94243C16.3528 4.91975 16.3424 4.89914 16.3327 4.88044ZM4.99935 19.666C5.55163 19.666 5.99935 20.1137 5.99935 20.666V22.9993H8.33268C8.88497 22.9993 9.33268 23.4471 9.33268 23.9993C9.33268 24.5516 8.88497 24.9993 8.33268 24.9993H5.99935V27.3327C5.99935 27.885 5.55163 28.3327 4.99935 28.3327C4.44706 28.3327 3.99935 27.885 3.99935 27.3327V24.9993H1.66602C1.11373 24.9993 0.666016 24.5516 0.666016 23.9993C0.666016 23.4471 1.11373 22.9993 1.66602 22.9993H3.99935V20.666C3.99935 20.1137 4.44706 19.666 4.99935 19.666Z" fill="#FFBE5C"/>
</svg>

<svg fill="none" xmlns="http://www.w3.org/2000/svg" viewBox="0 0 28 29"><path fill-rule="evenodd" clip-rule="evenodd" d="M5 .67a1 1 0 0 1 1 1V3h1.33a1 1 0 1 1 0 2H6v1.33a1 1 0 1 1-2 0V5H2.67a1 1 0 1 1 0-2H4V1.67a1 1 0 0 1 1-1ZM15.4 3a2 2 0 0 1 1.86 0c.48.25.74.72.9 1.06.18.36.37.84.58 1.41l.84 2.17a7.9 7.9 0 0 0 .74 1.66 3 3 0 0 0 .7.7c.29.2.63.35 1.66.74l2.17.84c.57.22 1.05.4 1.42.58.33.16.8.42 1.05.9a2 2 0 0 1 0 1.86c-.25.47-.72.73-1.05.9-.37.17-.85.36-1.42.58l-2.17.83a8.4 8.4 0 0 0-1.66.74 3 3 0 0 0-.7.7c-.2.3-.35.64-.74 1.67l-.84 2.17c-.21.56-.4 1.05-.58 1.41-.16.34-.42.8-.9 1.06a2 2 0 0 1-1.85 0 2.22 2.22 0 0 1-.9-1.06 19.4 19.4 0 0 1-.59-1.41l-.83-2.17a7.9 7.9 0 0 0-.74-1.66 3 3 0 0 0-.7-.7c-.3-.2-.64-.35-1.66-.75l-2.18-.83c-.56-.22-1.05-.4-1.41-.58-.34-.17-.8-.43-1.05-.9a2 2 0 0 1 0-1.86c.25-.48.71-.74 1.05-.9.36-.18.85-.36 1.41-.58l2.18-.84a7.88 7.88 0 0 0 1.65-.73 3 3 0 0 0 .7-.71c.21-.29.35-.63.75-1.66l.83-2.17c.22-.57.4-1.05.58-1.41.17-.34.43-.8.9-1.06Zm.93 1.87-.03.06c-.13.28-.29.68-.53 1.3l-.82 2.13-.04.11a8.66 8.66 0 0 1-.93 1.99 5 5 0 0 1-1.18 1.18c-.51.36-1.11.6-1.98.93l-.12.04-2.13.82a18.82 18.82 0 0 0-1.36.56l.07.03c.27.13.67.29 1.3.53l2.12.82.12.04c.87.34 1.47.57 1.98.93a5 5 0 0 1 1.18 1.18c.37.52.6 1.12.93 1.98l.04.12.82 2.13a18.85 18.85 0 0 0 .56 1.36l.03-.06c.14-.28.3-.68.53-1.3l.82-2.13.05-.12c.33-.86.56-1.46.93-1.98a5 5 0 0 1 1.17-1.18 8.85 8.85 0 0 1 2.1-.97l2.13-.82a18.84 18.84 0 0 0 1.36-.56 18.84 18.84 0 0 0-1.36-.56l-2.13-.82-.11-.04a8.85 8.85 0 0 1-1.99-.93 5 5 0 0 1-1.17-1.18 8.85 8.85 0 0 1-.93-1.99l-.05-.11-.82-2.13a18.77 18.77 0 0 0-.56-1.36ZM5 19.67a1 1 0 0 1 1 1V23h2.33a1 1 0 0 1 0 2H6v2.33a1 1 0 1 1-2 0V25H1.67a1 1 0 1 1 0-2H4v-2.33a1 1 0 0 1 1-1Z" fill="#FFBE5C"/></svg>
